X:1
T:Key To The Highway
C:1940 - B. B. Broonzy / C. Segar
Z:www.realbook.site
L:1/8
M:4/4
I:linebreak $
K:G
V:1 treble nm=" " snm=" "
V:1
 G (3GEG- |:"G" G4 z2 (3BGB |"D7" A4 z2 z d |"C9" e d3 z c _BG | C4 z G (3GEG- |$ %5
"G7" G2 (3BGD D2 z2 |"D7" z d (3c_BD D2 GG- |"G" G2 z2 z4 | z8 :| %9

